X:1
T: Lady Jemima Cornwallis' Reel
C:William Marshall
R:Reel
Q: 232
K:A
M:4/4
L:1/8
|:A2 a2 ag fg|ae ce fe dc|B2 b2 b1/2^a1/2g1/2a1/2 b2|bB ^df bf ga|
A2 a2 a1/2g1/2f1/2g1/2 a2|ae ce fe dc|de fg ae dc|Bb fb ag fa|
Ae ce Ae ce|Ae ca fe dc|Bf ^df Bf ^df|bB ^df bf ga|
Ae ce Ae ce|Ae ca fe dc|de fg ae dc|Bb fb ag fa:|
